src/cmd/lc_fullscreen.svg

<svg viewBox="0 0 24 24" xmlns="http://www.w3.org/2000/svg"><path d="m4 4v3l3-3zm13 0 3 3v-3zm-10 3v3 6 1h10v-1-9h-9zm1 3h8v6h-8zm-4 7v3h3zm16 0-3 3h3z" fill="#232629"/></svg>

<?xml version="1.0" encoding="UTF-8" standalone="no"?>
<svg
   xmlns:dc="http://purl.org/dc/elements/1.1/"
   xmlns:cc="http://creativecommons.org/ns#"
   xmlns:rdf="http://www.w3.org/1999/02/22-rdf-syntax-ns#"
   xmlns:svg="http://www.w3.org/2000/svg"
   xmlns="http://www.w3.org/2000/svg"
   xmlns:sodipodi="http://sodipodi.sourceforge.net/DTD/sodipodi-0.dtd"
   xmlns:inkscape="http://www.inkscape.org/namespaces/inkscape"
   viewBox="0 0 24 24"
   version="1.1"
   id="svg4"
   sodipodi:docname="lc_fullscreen.svg"
   inkscape:version="0.92.5 (2060ec1f9f, 2020-04-08)"
   inkscape:export-filename="/home/jupiter007/Libreoffice yaru theme fullcolor/build/cmd/lc_fullscreen.png"
   inkscape:export-xdpi="95"
   inkscape:export-ydpi="95">
  <metadata
     id="metadata10">
    <rdf:RDF>
      <cc:Work
         rdf:about="">
        <dc:format>image/svg+xml</dc:format>
        <dc:type
           rdf:resource="http://purl.org/dc/dcmitype/StillImage" />
      </cc:Work>
    </rdf:RDF>
  </metadata>
  <defs
     id="defs8" />
  <sodipodi:namedview
     pagecolor="#ffffff"
     bordercolor="#666666"
     borderopacity="1"
     objecttolerance="10"
     gridtolerance="10"
     guidetolerance="10"
     inkscape:pageopacity="0"
     inkscape:pageshadow="2"
     inkscape:window-width="1920"
     inkscape:window-height="1011"
     id="namedview6"
     showgrid="false"
     inkscape:zoom="27.812867"
     inkscape:cx="10.748075"
     inkscape:cy="10.110434"
     inkscape:window-x="0"
     inkscape:window-y="32"
     inkscape:window-maximized="1"
     inkscape:current-layer="svg4" />
  <path
     style="fill:#000000;stroke:#000000;opacity:0.6;stroke-width:2;stroke-miterlimit:4;stroke-dasharray:none;stroke-linejoin:round"
     id="path829"
     d="M 4,4 V 7 L 7,4 Z" />
  <path
     style="fill:#000000;stroke:#000000;opacity:0.6;stroke-width:2;stroke-miterlimit:4;stroke-dasharray:none;stroke-linejoin:round"
     id="path831"
     d="m 17,4 3,3 V 4 Z" />
  <path
     style="fill:#000000;stroke:#000000;opacity:0.6;stroke-width:2;stroke-miterlimit:4;stroke-dasharray:none;stroke-linejoin:round"
     id="path833"
     d="m 4,17 v 3 h 3 z" />
  <path
     style="fill:#000000;stroke:#000000;opacity:0.6;stroke-width:2;stroke-miterlimit:4;stroke-dasharray:none;stroke-linejoin:round"
     id="path835"
     d="m 20,17 -3,3 h 3 z" />
  <path
     d="M 4,4 V 7 L 7,4 Z"
     id="path827"
     style="fill:#ffffff" />
  <path
     d="m 17,4 3,3 V 4 Z"
     id="path825"
     style="fill:#ffffff" />
  <path
     d="m 7,7 v 3 6 1 H 17 V 16 7 H 8 Z"
     id="path823"
     style="fill:#6d6d6d;fill-opacity:1" />
  <path
     d="m 8,10 h 8 v 6 H 8 Z"
     id="path821"
     style="fill:#ffffff" />
  <path
     d="m 4,17 v 3 h 3 z"
     id="path819"
     style="fill:#ffffff" />
  <path
     d="m 20,17 -3,3 h 3 z"
     id="path2"
     style="fill:#ffffff" />
</svg>
